X:155
L:1/8
M:2/2
K:C
 d | cded cAGB | Adde dcAB | cded cAGE | AFED FGAB | cded cAGB | Adde dcAB | cded cAGE | 
 F2 GE{F} ED D2 || egge cBcd | eaag aged | egge dfed | cAGA c2 cd | egge dBcd | eaab agef | 
 gefd (3efg ed | cAGA c3 ||

